X: 3
T: White Cockade, The
C: R-1
C: British Isles
M: C|
Z: Transcribed to abc by Mary Lou Knack
R: reel
K: G
GA| "G"B2Bd cBAG| B2B2 B2GA| B2Bd cBAG| "D7"B2A2 A2GA|
    "G"BABd cBAG| B2d2 g2ga| bagf "C"agfe| "G"d2B2 B2:|
|:\
Bc| "G"d2Bd g2Bc| d^cde d2Bc| d2Bd g2fg| "D7"a2A2 A2GA|
    "G"BABd cBAG| B2d2 g2ga| bagf "C"agfe|"G"d2B2 B2 :|
%%text 9/1/98.  See R-86 for variant.


